app/assets/images/icons/active/globe.svg

<svg width="32" height="232" viewBox="0 0 32 232" xmlns="http://www.w3.org/2000/svg" xmlns:sketch="http://www.bohemiancoding.com/sketch/ns"><title>globe</title><g sketch:type="MSPage" fill="none"><path d="M32 135.891c0 4.449-1.57 8.242-4.71 11.382-3.141 3.153-6.902 4.727-11.282 4.727-4.381 0-8.136-1.549-11.266-4.645-3.161-3.117-4.742-6.9-4.742-11.347 0-4.448 1.581-8.235 4.742-11.363 3.13-3.096 6.885-4.645 11.266-4.645 4.38 0 8.13 1.525 11.248 4.576 3.163 3.096 4.744 6.867 4.744 11.315zm-2.753-.075c0-3.621-1.316-6.726-3.945-9.314-2.609-2.559-5.697-3.838-9.266-3.838l-1.439 3.004 1.569.322 1.222-1.246 2.158.147.434 1.171-1.297 1.319v.789l.807.162.375-.615 1.425-.906-.044.613.532.937-.634.674.403.395-.949.06.388.791-2.057.994.316 1.188h-.648l-.288-1.172-1.51-.029-.274.455-.618-.293-1.007 1.025.805.981-.029 1.082.849.646 4.951.571 1.568 1.126-.186 2.799-3.412 3.471c-.221.225-.437.85-.648 1.875-.202.967-.273 1.654-.214 2.064l-.519.6c-.403-.811-.927-2.055-1.569-3.732-.155-.576-.287-1.309-.403-2.198l-.259-2.212-2.159-1.932 1.915-2.301-.792-1.158c-1.219-.252-2.01-.477-2.375-.672-.365-.205-.992-.766-1.884-1.683l.748 1.478-.504.218-1.166-2.226.23-2.08-.359-1.463-1.123-1.113-.82-.205-.719.511-.792.208c-2.179 2.556-3.268 5.496-3.268 8.816 0 3.709 1.306 6.86 3.915 9.445 2.58 2.559 5.699 3.836 9.355 3.836 3.654 0 6.767-1.3 9.341-3.908 2.58-2.607 3.869-5.768 3.87-9.477zm0 0" fill="#206FAC" sketch:type="MSShapeGroup"/><path d="M32 95.891c0 4.449-1.57 8.242-4.71 11.382-3.141 3.153-6.902 4.727-11.282 4.727-4.381 0-8.136-1.549-11.266-4.645-3.161-3.117-4.742-6.9-4.742-11.347 0-4.448 1.581-8.235 4.742-11.363 3.13-3.096 6.885-4.645 11.266-4.645 4.38 0 8.13 1.525 11.248 4.576 3.163 3.096 4.744 6.867 4.744 11.315zm-2.753-.075c0-3.621-1.316-6.726-3.945-9.314-2.609-2.559-5.697-3.838-9.266-3.838l-1.439 3.004 1.569.322 1.222-1.246 2.158.147.434 1.171-1.297 1.319v.789l.807.162.375-.615 1.425-.906-.044.613.532.937-.634.674.403.395-.949.06.388.791-2.057.994.316 1.188h-.648l-.288-1.172-1.51-.029-.274.455-.618-.293-1.007 1.025.805.981-.029 1.082.849.646 4.951.571 1.568 1.126-.186 2.799-3.412 3.471c-.221.225-.437.85-.648 1.875-.202.967-.273 1.654-.214 2.064l-.519.6c-.403-.811-.927-2.055-1.569-3.732-.155-.576-.287-1.309-.403-2.198l-.259-2.212-2.159-1.932 1.915-2.301-.792-1.158c-1.219-.252-2.01-.477-2.375-.672-.365-.205-.992-.766-1.884-1.683l.748 1.478-.504.218-1.166-2.226.23-2.08-.359-1.463-1.123-1.113-.82-.205-.719.511-.792.208c-2.179 2.556-3.268 5.496-3.268 8.816 0 3.709 1.306 6.86 3.915 9.445 2.58 2.559 5.699 3.836 9.355 3.836 3.654 0 6.767-1.3 9.341-3.908 2.58-2.607 3.869-5.768 3.87-9.477zm0 0" fill="#fff" sketch:type="MSShapeGroup"/><path d="M32 55.891c0 4.449-1.57 8.242-4.71 11.382-3.141 3.153-6.902 4.727-11.282 4.727-4.381 0-8.136-1.549-11.266-4.645-3.161-3.117-4.742-6.9-4.742-11.347 0-4.448 1.581-8.235 4.742-11.363 3.13-3.096 6.885-4.645 11.266-4.645 4.38 0 8.13 1.525 11.248 4.576 3.163 3.096 4.744 6.867 4.744 11.315zm-2.753-.075c0-3.621-1.316-6.726-3.945-9.314-2.609-2.559-5.697-3.838-9.266-3.838l-1.439 3.004 1.569.322 1.222-1.246 2.158.147.434 1.171-1.297 1.319v.789l.807.162.375-.615 1.425-.906-.044.613.532.937-.634.674.403.395-.949.06.388.791-2.057.994.316 1.188h-.648l-.288-1.172-1.51-.029-.274.455-.618-.293-1.007 1.025.805.981-.029 1.082.849.646 4.951.571 1.568 1.126-.186 2.799-3.412 3.471c-.221.225-.437.85-.648 1.875-.202.967-.273 1.654-.214 2.064l-.519.6c-.403-.811-.927-2.055-1.569-3.732-.155-.576-.287-1.309-.403-2.198l-.259-2.212-2.159-1.932 1.915-2.301-.792-1.158c-1.219-.252-2.01-.477-2.375-.672-.365-.205-.992-.766-1.884-1.683l.748 1.478-.504.218-1.166-2.226.23-2.08-.359-1.463-1.123-1.113-.82-.205-.719.511-.792.208c-2.179 2.556-3.268 5.496-3.268 8.816 0 3.709 1.306 6.86 3.915 9.445 2.58 2.559 5.699 3.836 9.355 3.836 3.654 0 6.767-1.3 9.341-3.908 2.58-2.607 3.869-5.768 3.87-9.477zm0 0" fill="#67737B" sketch:type="MSShapeGroup"/><path d="M32 15.891c0 4.449-1.57 8.242-4.71 11.382-3.141 3.153-6.902 4.727-11.282 4.727-4.381 0-8.136-1.549-11.266-4.645-3.161-3.117-4.742-6.9-4.742-11.347 0-4.448 1.581-8.235 4.742-11.363 3.13-3.096 6.885-4.645 11.266-4.645 4.38 0 8.13 1.525 11.248 4.576 3.163 3.096 4.744 6.867 4.744 11.315zm-2.753-.075c0-3.621-1.316-6.726-3.945-9.314-2.609-2.559-5.697-3.838-9.266-3.838l-1.439 3.004 1.569.322 1.222-1.246 2.158.147.434 1.171-1.297 1.319v.789l.807.162.375-.615 1.425-.906-.044.613.532.937-.634.674.403.395-.949.06.388.791-2.057.994.316 1.188h-.648l-.288-1.172-1.51-.029-.274.455-.618-.293-1.007 1.025.805.981-.029 1.082.849.646 4.951.571 1.568 1.126-.186 2.799-3.412 3.471c-.221.225-.437.85-.648 1.875-.202.967-.273 1.654-.214 2.064l-.519.6c-.403-.811-.927-2.055-1.569-3.732-.155-.576-.287-1.309-.403-2.198l-.259-2.212-2.159-1.932 1.915-2.301-.792-1.158c-1.219-.252-2.01-.477-2.375-.672-.365-.205-.992-.766-1.884-1.683l.748 1.478-.504.218-1.166-2.226.23-2.08-.359-1.463-1.123-1.113-.82-.205-.719.511-.792.208c-2.179 2.556-3.268 5.496-3.268 8.816 0 3.709 1.306 6.86 3.915 9.445 2.58 2.559 5.699 3.836 9.355 3.836 3.654 0 6.767-1.3 9.341-3.908 2.58-2.607 3.869-5.768 3.87-9.477zm0 0" fill="#3A434E" sketch:type="MSShapeGroup"/></g></svg>

<?xml version="1.0" encoding="UTF-8" standalone="no"?>
<svg width="32px" height="232px" viewBox="0 0 32 232" version="1.1" xmlns="http://www.w3.org/2000/svg" xmlns:xlink="http://www.w3.org/1999/xlink" xmlns:sketch="http://www.bohemiancoding.com/sketch/ns">
    <title>globe</title>
    <description>Created with Sketch (http://www.bohemiancoding.com/sketch)</description>
    <defs></defs>
    <g id="Graphics" stroke="none" stroke-width="1" fill="none" fill-rule="evenodd" sketch:type="MSPage">
        <path d="M32,135.891 C32,140.34 30.43,144.133 27.29,147.273 C24.149,150.426 20.388,152 16.008,152 C11.627,152 7.872,150.451 4.742,147.355 C1.581,144.238 0,140.455 0,136.008 C0,131.56 1.581,127.773 4.742,124.645 C7.872,121.549 11.627,120 16.008,120 C20.388,120 24.138,121.525 27.256,124.576 C30.419,127.672 32,131.443 32,135.891 C32,135.891 32,131.443 32,135.891 L32,135.891 L32,135.891 Z M29.247,135.816 C29.247,132.195 27.931,129.09 25.302,126.502 C22.693,123.943 19.605,122.664 16.036,122.664 L14.597,125.668 L16.166,125.99 L17.388,124.744 L19.546,124.891 L19.98,126.062 L18.683,127.381 L18.683,128.17 L19.49,128.332 L19.865,127.717 L21.29,126.811 L21.246,127.424 L21.778,128.361 L21.144,129.035 L21.547,129.43 L20.598,129.49 L20.986,130.281 L18.929,131.275 L19.245,132.463 L18.597,132.463 L18.309,131.291 L16.799,131.262 L16.525,131.717 L15.907,131.424 L14.9,132.449 L15.705,133.43 L15.676,134.512 L16.525,135.158 L21.476,135.729 L23.044,136.855 L22.858,139.654 L19.446,143.125 C19.225,143.35 19.009,143.975 18.798,145 C18.596,145.967 18.525,146.654 18.584,147.064 L18.065,147.664 C17.662,146.853 17.138,145.609 16.496,143.932 C16.341,143.356 16.209,142.623 16.093,141.734 C16.006,141.002 15.921,140.264 15.834,139.522 L13.675,137.59 L15.59,135.289 L14.798,134.131 C13.579,133.879 12.788,133.654 12.423,133.459 C12.058,133.254 11.431,132.693 10.539,131.776 L11.287,133.254 L10.783,133.472 L9.617,131.246 L9.847,129.166 L9.488,127.703 L8.365,126.59 L7.545,126.385 L6.826,126.896 L6.034,127.104 C3.855,129.66 2.766,132.6 2.766,135.92 C2.766,139.629 4.072,142.78 6.681,145.365 C9.261,147.924 12.38,149.201 16.036,149.201 C19.69,149.201 22.803,147.901 25.377,145.293 C27.957,142.686 29.246,139.525 29.247,135.816 L29.247,135.816 Z M29.247,135.816" id="globe--lp--blue" fill="#206FAC" sketch:type="MSShapeGroup"></path>
        <path d="M32,95.891 C32,100.34 30.43,104.133 27.29,107.273 C24.149,110.426 20.388,112 16.008,112 C11.627,112 7.872,110.451 4.742,107.355 C1.581,104.238 0,100.455 0,96.008 C0,91.56 1.581,87.773 4.742,84.645 C7.872,81.549 11.627,80 16.008,80 C20.388,80 24.138,81.525 27.256,84.576 C30.419,87.672 32,91.443 32,95.891 C32,95.891 32,91.443 32,95.891 L32,95.891 L32,95.891 Z M29.247,95.816 C29.247,92.195 27.931,89.09 25.302,86.502 C22.693,83.943 19.605,82.664 16.036,82.664 L14.597,85.668 L16.166,85.99 L17.388,84.744 L19.546,84.891 L19.98,86.062 L18.683,87.381 L18.683,88.17 L19.49,88.332 L19.865,87.717 L21.29,86.811 L21.246,87.424 L21.778,88.361 L21.144,89.035 L21.547,89.43 L20.598,89.49 L20.986,90.281 L18.929,91.275 L19.245,92.463 L18.597,92.463 L18.309,91.291 L16.799,91.262 L16.525,91.717 L15.907,91.424 L14.9,92.449 L15.705,93.43 L15.676,94.512 L16.525,95.158 L21.476,95.729 L23.044,96.855 L22.858,99.654 L19.446,103.125 C19.225,103.35 19.009,103.975 18.798,105 C18.596,105.967 18.525,106.654 18.584,107.064 L18.065,107.664 C17.662,106.853 17.138,105.609 16.496,103.932 C16.341,103.356 16.209,102.623 16.093,101.734 C16.006,101.002 15.921,100.264 15.834,99.522 L13.675,97.59 L15.59,95.289 L14.798,94.131 C13.579,93.879 12.788,93.654 12.423,93.459 C12.058,93.254 11.431,92.693 10.539,91.776 L11.287,93.254 L10.783,93.472 L9.617,91.246 L9.847,89.166 L9.488,87.703 L8.365,86.59 L7.545,86.385 L6.826,86.896 L6.034,87.104 C3.855,89.66 2.766,92.6 2.766,95.92 C2.766,99.629 4.072,102.78 6.681,105.365 C9.261,107.924 12.38,109.201 16.036,109.201 C19.69,109.201 22.803,107.901 25.377,105.293 C27.957,102.686 29.246,99.525 29.247,95.816 L29.247,95.816 Z M29.247,95.816" id="globe--white" fill="#FFFFFF" sketch:type="MSShapeGroup"></path>
        <path d="M32,55.891 C32,60.34 30.43,64.133 27.29,67.273 C24.149,70.426 20.388,72 16.008,72 C11.627,72 7.872,70.451 4.742,67.355 C1.581,64.238 0,60.455 0,56.008 C0,51.56 1.581,47.773 4.742,44.645 C7.872,41.549 11.627,40 16.008,40 C20.388,40 24.138,41.525 27.256,44.576 C30.419,47.672 32,51.443 32,55.891 C32,55.891 32,51.443 32,55.891 L32,55.891 L32,55.891 Z M29.247,55.816 C29.247,52.195 27.931,49.09 25.302,46.502 C22.693,43.943 19.605,42.664 16.036,42.664 L14.597,45.668 L16.166,45.99 L17.388,44.744 L19.546,44.891 L19.98,46.062 L18.683,47.381 L18.683,48.17 L19.49,48.332 L19.865,47.717 L21.29,46.811 L21.246,47.424 L21.778,48.361 L21.144,49.035 L21.547,49.43 L20.598,49.49 L20.986,50.281 L18.929,51.275 L19.245,52.463 L18.597,52.463 L18.309,51.291 L16.799,51.262 L16.525,51.717 L15.907,51.424 L14.9,52.449 L15.705,53.43 L15.676,54.512 L16.525,55.158 L21.476,55.729 L23.044,56.855 L22.858,59.654 L19.446,63.125 C19.225,63.35 19.009,63.975 18.798,65 C18.596,65.967 18.525,66.654 18.584,67.064 L18.065,67.664 C17.662,66.853 17.138,65.609 16.496,63.932 C16.341,63.356 16.209,62.623 16.093,61.734 C16.006,61.002 15.921,60.264 15.834,59.522 L13.675,57.59 L15.59,55.289 L14.798,54.131 C13.579,53.879 12.788,53.654 12.423,53.459 C12.058,53.254 11.431,52.693 10.539,51.776 L11.287,53.254 L10.783,53.472 L9.617,51.246 L9.847,49.166 L9.488,47.703 L8.365,46.59 L7.545,46.385 L6.826,46.896 L6.034,47.104 C3.855,49.66 2.766,52.6 2.766,55.92 C2.766,59.629 4.072,62.78 6.681,65.365 C9.261,67.924 12.38,69.201 16.036,69.201 C19.69,69.201 22.803,67.901 25.377,65.293 C27.957,62.686 29.246,59.525 29.247,55.816 L29.247,55.816 Z M29.247,55.816" id="globe--light--grey" fill="#67737B" sketch:type="MSShapeGroup"></path>
        <path d="M32,15.891 C32,20.34 30.43,24.133 27.29,27.273 C24.149,30.426 20.388,32 16.008,32 C11.627,32 7.872,30.451 4.742,27.355 C1.581,24.238 0,20.455 0,16.008 C0,11.56 1.581,7.773 4.742,4.645 C7.872,1.549 11.627,0 16.008,0 C20.388,0 24.138,1.525 27.256,4.576 C30.419,7.672 32,11.443 32,15.891 C32,15.891 32,11.443 32,15.891 L32,15.891 L32,15.891 Z M29.247,15.816 C29.247,12.195 27.931,9.09 25.302,6.502 C22.693,3.943 19.605,2.664 16.036,2.664 L14.597,5.668 L16.166,5.99 L17.388,4.744 L19.546,4.891 L19.98,6.062 L18.683,7.381 L18.683,8.17 L19.49,8.332 L19.865,7.717 L21.29,6.811 L21.246,7.424 L21.778,8.361 L21.144,9.035 L21.547,9.43 L20.598,9.49 L20.986,10.281 L18.929,11.275 L19.245,12.463 L18.597,12.463 L18.309,11.291 L16.799,11.262 L16.525,11.717 L15.907,11.424 L14.9,12.449 L15.705,13.43 L15.676,14.512 L16.525,15.158 L21.476,15.729 L23.044,16.855 L22.858,19.654 L19.446,23.125 C19.225,23.35 19.009,23.975 18.798,25 C18.596,25.967 18.525,26.654 18.584,27.064 L18.065,27.664 C17.662,26.853 17.138,25.609 16.496,23.932 C16.341,23.356 16.209,22.623 16.093,21.734 C16.006,21.002 15.921,20.264 15.834,19.522 L13.675,17.59 L15.59,15.289 L14.798,14.131 C13.579,13.879 12.788,13.654 12.423,13.459 C12.058,13.254 11.431,12.693 10.539,11.776 L11.287,13.254 L10.783,13.472 L9.617,11.246 L9.847,9.166 L9.488,7.703 L8.365,6.59 L7.545,6.385 L6.826,6.896 L6.034,7.104 C3.855,9.66 2.766,12.6 2.766,15.92 C2.766,19.629 4.072,22.78 6.681,25.365 C9.261,27.924 12.38,29.201 16.036,29.201 C19.69,29.201 22.803,27.901 25.377,25.293 C27.957,22.686 29.246,19.525 29.247,15.816 L29.247,15.816 Z M29.247,15.816" id="globe--dark--grey" fill="#3A434E" sketch:type="MSShapeGroup"></path>
    </g>
</svg>
